src/resources/assets/navigation.svg

<svg xmlns="http://www.w3.org/2000/svg" width="16" height="16"><path d="M 1.988281 11.738281 L 14.011719 11.738281 C 14.28125 11.738281 14.5 11.957031 14.5 12.226562 C 14.5 12.472656 14.316406 12.675781 14.078125 12.707031 L 14.011719 12.710938 L 1.988281 12.710938 C 1.71875 12.710938 1.5 12.496094 1.5 12.226562 C 1.5 11.976562 1.683594 11.773438 1.921875 11.742188 L 1.988281 11.738281 L 14.011719 11.738281 Z M 1.988281 7.515625 L 14.011719 7.515625 C 14.28125 7.515625 14.5 7.734375 14.5 8.003906 C 14.5 8.25 14.316406 8.453125 14.078125 8.484375 L 14.011719 8.488281 L 1.988281 8.488281 C 1.71875 8.488281 1.5 8.269531 1.5 8.003906 C 1.5 7.753906 1.683594 7.550781 1.921875 7.519531 L 1.988281 7.515625 L 14.011719 7.515625 Z M 1.988281 3.289062 L 14.011719 3.289062 C 14.28125 3.289062 14.5 3.507812 14.5 3.777344 C 14.5 4.023438 14.316406 4.226562 14.078125 4.261719 L 14.011719 4.265625 L 1.988281 4.265625 C 1.71875 4.265625 1.5 4.046875 1.5 3.777344 C 1.5 3.53125 1.683594 3.328125 1.921875 3.292969 L 1.988281 3.289062 L 14.011719 3.289062 Z M 1.988281 3.289062" fill="#ddd"/></svg>

<svg xmlns="http://www.w3.org/2000/svg" width="16" height="16"><path d="M1.988 11.738h12.024c.27 0 .488.219.488.489 0 .246-.184.449-.422.48l-.066.004H1.988a.486.486 0 01-.066-.969l.066-.004h12.024zm0-4.222h12.024c.27 0 .488.218.488.488 0 .246-.184.45-.422.48l-.066.004H1.988a.488.488 0 01-.066-.968l.066-.004h12.024zm0-4.227h12.024a.488.488 0 01.066.973l-.066.004H1.988a.488.488 0 01-.066-.973l.066-.004h12.024zm0 0" fill="#ddd"/></svg>
